src/svg/keyboard.svg

<svg xmlns="http://www.w3.org/2000/svg" width="1000" height="1000" viewBox="0 0 1000 1000"><path fill-rule="evenodd" clip-rule="evenodd" fill="#020202" d="M811.964 798.25h-623.928c-46.952 0-85.016-38.05-85.016-85.099v-425.33c0-46.967 38.063-85.072 85.016-85.072h623.928c46.966 0 85.016 38.105 85.016 85.072v425.33c-.001 47.049-38.05 85.099-85.016 85.099zm0-482.072c0-15.646-12.711-28.356-28.413-28.356h-567.088c-15.716 0-28.427 12.711-28.427 28.356v368.644c0 15.674 12.711 28.33 28.427 28.33h567.088c15.702 0 28.413-12.656 28.413-28.33v-368.644zm-85.1 340.286h-453.728c-15.633 0-28.344-12.71-28.344-28.329v-28.357c0-15.701 12.711-28.412 28.344-28.412h453.729c15.618 0 28.357 12.711 28.357 28.412v28.357c0 15.619-12.74 28.329-28.358 28.329zm0-113.429h-170.115c-15.702 0-28.413-12.71-28.413-28.329v-28.357c0-15.701 12.711-28.412 28.413-28.412h113.346v-85.017c0-15.701 12.738-28.412 28.44-28.412h28.329c15.618 0 28.357 12.711 28.357 28.412v141.786c.001 15.619-12.739 28.329-28.357 28.329zm-113.428-113.429h-56.687c-15.702 0-28.413-12.71-28.413-28.356v-28.33c0-15.701 12.711-28.412 28.413-28.412h56.687c15.618 0 28.357 12.711 28.357 28.412v28.33c0 15.646-12.739 28.356-28.357 28.356zm-141.773 113.429h-56.756c-15.632 0-28.343-12.71-28.343-28.329v-28.357c0-15.701 12.711-28.412 28.343-28.412h56.756c15.633 0 28.33 12.711 28.33 28.412v28.357c0 15.619-12.697 28.329-28.33 28.329zm0-113.429h-56.756c-15.632 0-28.343-12.71-28.343-28.356v-28.33c0-15.701 12.711-28.412 28.343-28.412h56.756c15.633 0 28.33 12.711 28.33 28.412v28.33c0 15.646-12.697 28.356-28.33 28.356zm-141.771 113.429h-56.756c-15.633 0-28.344-12.71-28.344-28.329v-28.357c0-15.701 12.711-28.412 28.344-28.412h56.756c15.632 0 28.343 12.711 28.343 28.412v28.357c-.001 15.619-12.712 28.329-28.343 28.329zm0-113.429h-56.756c-15.633 0-28.344-12.71-28.344-28.356v-28.33c0-15.701 12.711-28.412 28.344-28.412h56.756c15.632 0 28.343 12.711 28.343 28.412v28.33c-.001 15.646-12.712 28.356-28.343 28.356z"/></svg>

<?xml version="1.0" encoding="utf-8"?>
<!-- Generator: Adobe Illustrator 16.0.0, SVG Export Plug-In . SVG Version: 6.00 Build 0)  -->
<!DOCTYPE svg PUBLIC "-//W3C//DTD SVG 1.1//EN" "http://www.w3.org/Graphics/SVG/1.1/DTD/svg11.dtd">
<svg version="1.1" id="Layer_1" xmlns="http://www.w3.org/2000/svg" xmlns:xlink="http://www.w3.org/1999/xlink" x="0px" y="0px"
	 width="1000px" height="1000px" viewBox="0 0 1000 1000" enable-background="new 0 0 1000 1000" xml:space="preserve">
<path fill-rule="evenodd" clip-rule="evenodd" fill="#020202" d="M811.964,798.25H188.036c-46.952,0-85.016-38.05-85.016-85.099
	v-425.33c0-46.967,38.063-85.072,85.016-85.072h623.928c46.966,0,85.016,38.105,85.016,85.072v425.33
	C896.979,760.2,858.93,798.25,811.964,798.25L811.964,798.25z M811.964,316.178c0-15.646-12.711-28.356-28.413-28.356H216.463
	c-15.716,0-28.427,12.711-28.427,28.356v368.644c0,15.674,12.711,28.33,28.427,28.33h567.088c15.702,0,28.413-12.656,28.413-28.33
	V316.178L811.964,316.178z M726.864,656.464H273.136c-15.633,0-28.344-12.71-28.344-28.329v-28.357
	c0-15.701,12.711-28.412,28.344-28.412h453.729c15.618,0,28.357,12.711,28.357,28.412v28.357
	C755.222,643.754,742.482,656.464,726.864,656.464L726.864,656.464z M726.864,543.035h-28.329H556.749
	c-15.702,0-28.413-12.71-28.413-28.329v-28.357c0-15.701,12.711-28.412,28.413-28.412h113.346V372.92
	c0-15.701,12.738-28.412,28.44-28.412h28.329c15.618,0,28.357,12.711,28.357,28.412v113.429v28.357
	C755.222,530.325,742.482,543.035,726.864,543.035L726.864,543.035z M613.436,429.606h-56.687c-15.702,0-28.413-12.71-28.413-28.356
	v-28.33c0-15.701,12.711-28.412,28.413-28.412h56.687c15.618,0,28.357,12.711,28.357,28.412v28.33
	C641.793,416.896,629.054,429.606,613.436,429.606L613.436,429.606z M471.663,543.035h-56.756c-15.632,0-28.343-12.71-28.343-28.329
	v-28.357c0-15.701,12.711-28.412,28.343-28.412h56.756c15.633,0,28.33,12.711,28.33,28.412v28.357
	C499.993,530.325,487.296,543.035,471.663,543.035L471.663,543.035z M471.663,429.606h-56.756c-15.632,0-28.343-12.71-28.343-28.356
	v-28.33c0-15.701,12.711-28.412,28.343-28.412h56.756c15.633,0,28.33,12.711,28.33,28.412v28.33
	C499.993,416.896,487.296,429.606,471.663,429.606L471.663,429.606z M329.892,543.035h-56.756c-15.633,0-28.344-12.71-28.344-28.329
	v-28.357c0-15.701,12.711-28.412,28.344-28.412h56.756c15.632,0,28.343,12.711,28.343,28.412v28.357
	C358.234,530.325,345.523,543.035,329.892,543.035L329.892,543.035z M329.892,429.606h-56.756c-15.633,0-28.344-12.71-28.344-28.356
	v-28.33c0-15.701,12.711-28.412,28.344-28.412h56.756c15.632,0,28.343,12.711,28.343,28.412v28.33
	C358.234,416.896,345.523,429.606,329.892,429.606L329.892,429.606z"/>
</svg>
